X: 1
T: Have A Drink With Me
R: jig
M: 6/8
L: 1/8
K: Emin
|:BAG E2D|EGD EGA|BAB GED|EAA ABc|
BAG E2D|EGD EGA|BAB GED|EGG G3:|
|:GBd e2d|dgd B2A|GBd edB|cea ~a3|
bag age|ged ege|dBG ABc|BGG G3:|


Tune 1922	Setting 15352

